svgs/duotone/face-hushed.svg

<svg xmlns="http://www.w3.org/2000/svg" viewBox="0 0 512 512"><!--! Font Awesome Pro 6.4.2 by @fontawesome - https://fontawesome.com License - https://fontawesome.com/license (Commercial License) Copyright 2023 Fonticons, Inc. --><path class="fa-primary" style="fill:var(--fa-primary-color,inherit);opacity:var(--fa-primary-opacity,1);" d="M192 160c-4.4 0-8.8 .3-13 .9c-21.2 2.8-40.6 12.4-56.1 26.8c-6.5 6-16.6 5.7-22.6-.8s-5.7-16.6 .8-22.6c20.1-18.7 45.5-31.5 73.7-35.2c5.6-.7 11.4-1.1 17.2-1.1c8.8 0 16 7.2 16 16s-7.2 16-16 16zm-15.6 64a32 32 0 1 1 0 64 32 32 0 1 1 0-64zm160 0a32 32 0 1 1 0 64 32 32 0 1 1 0-64zM333 160.9c-4.3-.6-8.6-.9-13-.9c-8.8 0-16-7.2-16-16s7.2-16 16-16c5.8 0 11.6 .4 17.2 1.1c28.2 3.7 53.7 16.4 73.7 35.2c6.5 6 6.8 16.2 .8 22.6s-16.2 6.8-22.6 .8c-15.5-14.5-34.8-24-56.1-26.8z"/><path class="fa-secondary" style="fill:var(--fa-secondary-color,inherit);opacity:var(--fa-secondary-opacity,.4);" d="M256 512A256 256 0 1 0 256 0a256 256 0 1 0 0 512zM176.4 224a32 32 0 1 1 0 64 32 32 0 1 1 0-64zm128 32a32 32 0 1 1 64 0 32 32 0 1 1 -64 0zM179 160.9c-21.2 2.8-40.6 12.4-56.1 26.8c-6.5 6-16.6 5.7-22.6-.8s-5.7-16.6 .8-22.6c20.1-18.7 45.5-31.5 73.7-35.2c5.6-.7 11.4-1.1 17.2-1.1c8.8 0 16 7.2 16 16s-7.2 16-16 16c-4.4 0-8.8 .3-13 .9zm141-.9c-8.8 0-16-7.2-16-16s7.2-16 16-16c5.8 0 11.6 .4 17.2 1.1c28.2 3.7 53.7 16.4 73.7 35.2c6.5 6 6.8 16.2 .8 22.6s-16.2 6.8-22.6 .8c-15.5-14.5-34.8-24-56.1-26.8c-4.3-.6-8.6-.9-13-.9zM256 336a48 48 0 1 1 0 96 48 48 0 1 1 0-96z"/></svg>

<svg xmlns="http://www.w3.org/2000/svg" viewBox="0 0 512 512"><!--! Font Awesome Pro 6.1.1 by @fontawesome - https://fontawesome.com License - https://fontawesome.com/license (Commercial License) Copyright 2022 Fonticons, Inc. --><defs><style>.fa-secondary{opacity:.4}</style></defs><path class="fa-primary" d="M192 160C187.6 160 183.2 160.3 178.1 160.9C157.8 163.7 138.4 173.2 122.9 187.7C116.5 193.7 106.3 193.4 100.3 186.9C94.28 180.5 94.62 170.3 101.1 164.3C121.1 145.6 146.6 132.9 174.8 129.1C180.4 128.4 186.2 128 192 128C200.8 128 208 135.2 208 144C208 152.8 200.8 160 192 160zM144.4 256C144.4 238.3 158.7 224 176.4 224C194 224 208.4 238.3 208.4 256C208.4 273.7 194 288 176.4 288C158.7 288 144.4 273.7 144.4 256zM304.4 256C304.4 238.3 318.7 224 336.4 224C354 224 368.4 238.3 368.4 256C368.4 273.7 354 288 336.4 288C318.7 288 304.4 273.7 304.4 256zM333 160.9C328.8 160.3 324.4 160 320 160C311.2 160 304 152.8 304 144C304 135.2 311.2 128 320 128C325.8 128 331.6 128.4 337.2 129.1C365.4 132.9 390.9 145.6 410.9 164.3C417.4 170.3 417.7 180.5 411.7 186.9C405.7 193.4 395.5 193.7 389.1 187.7C373.6 173.2 354.2 163.7 333 160.9z"/><path class="fa-secondary" d="M0 256C0 114.6 114.6 0 256 0C397.4 0 512 114.6 512 256C512 397.4 397.4 512 256 512C114.6 512 0 397.4 0 256zM176.4 288C194 288 208.4 273.7 208.4 256C208.4 238.3 194 224 176.4 224C158.7 224 144.4 238.3 144.4 256C144.4 273.7 158.7 288 176.4 288zM336.4 224C318.7 224 304.4 238.3 304.4 256C304.4 273.7 318.7 288 336.4 288C354 288 368.4 273.7 368.4 256C368.4 238.3 354 224 336.4 224zM178.1 160.9C183.2 160.3 187.6 160 192 160C200.8 160 208 152.8 208 144C208 135.2 200.8 128 192 128C186.2 128 180.4 128.4 174.8 129.1C146.6 132.9 121.1 145.6 101.1 164.3C94.62 170.3 94.28 180.5 100.3 186.9C106.3 193.4 116.5 193.7 122.9 187.7C138.4 173.2 157.8 163.7 178.1 160.9zM320 160C324.4 160 328.8 160.3 333 160.9C354.2 163.7 373.6 173.2 389.1 187.7C395.5 193.7 405.7 193.4 411.7 186.9C417.7 180.5 417.4 170.3 410.9 164.3C390.9 145.6 365.4 132.9 337.2 129.1C331.6 128.4 325.8 128 320 128C311.2 128 304 135.2 304 144C304 152.8 311.2 160 320 160zM256 432C282.5 432 304 410.5 304 384C304 357.5 282.5 336 256 336C229.5 336 208 357.5 208 384C208 410.5 229.5 432 256 432z"/></svg>
